X: 13
T:Walsh's Frolics (#89)
M:6/8
L:1/8
S:Francis E. Walsh, San Francisco
K:G
d/2c/2|B2 G BdB|"tr"B2 G Bdg|e2 A Aag|f2 d def|
g2 d gfe|d2 c Bcd|edB d2 A|GBA G2 d|
b2 g {b}agf|"tr"g2 f efg|e2 d efg|"tr"d2 c Bcd|
e2 A Adc|B2 G BdB|"tr"B2 G Bdg|ed^c d2 B|GBA G2||

